svgs/sharp-light/wifi-exclamation.svg

<svg xmlns="http://www.w3.org/2000/svg" viewBox="0 0 640 512"><!--! Font Awesome Pro 6.6.0 by @fontawesome - https://fontawesome.com License - https://fontawesome.com/license (Commercial License) Copyright 2024 Fonticons, Inc. --><path d="M336 48l0-16-32 0 0 16 0 240 0 16 32 0 0-16 0-240zM3.1 163.4l21.6 23.7C89.4 121.8 175.7 77.8 272 66.7L272 48l0-13.5C167.4 45.7 73.5 92.8 3.1 163.4zM110.9 282l21.6 23.8c36.4-39.1 84.9-66.9 139.5-77.2l0-32.5c-63 10.6-119.1 41.6-161.1 86zM368 196l0 32.5c54.6 10.4 103.1 38.1 139.5 77.2L529.1 282C487 237.6 431 206.5 368 196zm0-148l0 18.7c96.3 11.1 182.6 55 247.4 120.3l21.6-23.7C566.5 92.8 472.6 45.7 368 34.5L368 48zM288 416a32 32 0 1 1 64 0 32 32 0 1 1 -64 0zm96 0a64 64 0 1 0 -128 0 64 64 0 1 0 128 0z"/></svg>

<svg xmlns="http://www.w3.org/2000/svg" viewBox="0 0 640 512"><!--! Font Awesome Pro 6.4.2 by @fontawesome - https://fontawesome.com License - https://fontawesome.com/license (Commercial License) Copyright 2023 Fonticons, Inc. --><path d="M336 48V32H304V48 288v16h32V288 48zM3.1 163.4l21.6 23.7C89.4 121.8 175.7 77.8 272 66.7V48 34.5C167.4 45.7 73.5 92.8 3.1 163.4zM110.9 282l21.6 23.8c36.4-39.1 84.9-66.9 139.5-77.2V196c-63 10.6-119.1 41.6-161.1 86zM368 196v32.5c54.6 10.4 103.1 38.1 139.5 77.2L529.1 282C487 237.6 431 206.5 368 196zm0-148V66.7c96.3 11.1 182.6 55 247.4 120.3l21.6-23.7C566.5 92.8 472.6 45.7 368 34.5V48zM288 416a32 32 0 1 1 64 0 32 32 0 1 1 -64 0zm96 0a64 64 0 1 0 -128 0 64 64 0 1 0 128 0z"/></svg>
